storage/app/icons/phosphoricons/light/user-rectangle-light.svg

<svg xmlns="http://www.w3.org/2000/svg" fill="currentColor" viewBox="0 0 256 256"><path d="M216 42H40a14 14 0 0 0-14 14v144a14 14 0 0 0 14 14h176a14 14 0 0 0 14-14V56a14 14 0 0 0-14-14M94 120a34 34 0 1 1 34 34 34 34 0 0 1-34-34m-24.79 82a66 66 0 0 1 117.58 0ZM218 200a2 2 0 0 1-2 2h-16a78.18 78.18 0 0 0-46.55-43.71 46 46 0 1 0-50.9 0A78.18 78.18 0 0 0 56 202H40a2 2 0 0 1-2-2V56a2 2 0 0 1 2-2h176a2 2 0 0 1 2 2Z"/></svg>

<svg xmlns="http://www.w3.org/2000/svg" viewBox="0 0 256 256" fill="currentColor"><path d="M216,42H40A14,14,0,0,0,26,56V200a14,14,0,0,0,14,14H216a14,14,0,0,0,14-14V56A14,14,0,0,0,216,42ZM94,120a34,34,0,1,1,34,34A34,34,0,0,1,94,120ZM69.21,202a66,66,0,0,1,117.58,0ZM218,200a2,2,0,0,1-2,2H200a78.18,78.18,0,0,0-46.55-43.71,46,46,0,1,0-50.9,0A78.18,78.18,0,0,0,56,202H40a2,2,0,0,1-2-2V56a2,2,0,0,1,2-2H216a2,2,0,0,1,2,2Z"/></svg>
